assets/img/braze_icons/file-check-01.svg

<svg fill="none" height="24" viewBox="0 0 24 24" width="24" xmlns="http://www.w3.org/2000/svg"><g fill="#801ed7"><path clip-rule="evenodd" d="m22.7071 16.7929c.3905.3905.3905 1.0237 0 1.4142l-4.5 4.5c-.3905.3905-1.0237.3905-1.4142 0l-2-2c-.3905-.3905-.3905-1.0237 0-1.4142s1.0237-.3905 1.4142 0l1.2929 1.2929 3.7929-3.7929c.3905-.3905 1.0237-.3905 1.4142 0z" fill-rule="evenodd"/><path d="m8.7587 1h6.4826c.805-.000012 1.4693-.000022 2.0105.04419.5621.04593 1.0788.14449 1.5642.39179.7526.38349 1.3645.99541 1.748 1.74806.2473.48533.3459 1.00204.3918 1.56414.0442.54119.0442 1.20554.0442 2.0105v7.34602c0 .1973 0 .2959-.0242.3708-.0254.0786-.048.1179-.1029.1795-.0525.0587-.1636.1237-.3858.2536-.2173.127-.4221.2837-.6084.4701l-2.3821 2.3821c-1.178-1.0523-2.9871-1.013-4.1179.1179-1.1716 1.1716-1.1716 3.071 0 4.2426.0208.0209.0312.0313.0372.0376.2925.3136.0804.8259-.3483.8408-.0087.0003-.0234.0003-.0529.0003h-4.25602c-.80496 0-1.46931 0-2.0105-.0442-.5621-.0459-1.07881-.1445-1.56414-.3918-.75265-.3835-1.36457-.9954-1.74806-1.748-.2473-.4854-.34586-1.0021-.39179-1.5642-.04421-.5412-.0442-1.2055-.04419-2.0105v-10.4826c-.00001-.80496-.00002-1.46933.04419-2.01052.04593-.5621.14449-1.07881.39179-1.56414.38349-.75265.99541-1.36457 1.74806-1.74806.48533-.2473 1.00204-.34586 1.56414-.39179.54119-.044212 1.20556-.044202 2.01052-.04419z"/></g></svg>

<svg width="24" height="24" viewBox="0 0 24 24" fill="none" xmlns="http://www.w3.org/2000/svg">
<path fill-rule="evenodd" clip-rule="evenodd" d="M22.7071 16.7929C23.0976 17.1834 23.0976 17.8166 22.7071 18.2071L18.2071 22.7071C17.8166 23.0976 17.1834 23.0976 16.7929 22.7071L14.7929 20.7071C14.4024 20.3166 14.4024 19.6834 14.7929 19.2929C15.1834 18.9024 15.8166 18.9024 16.2071 19.2929L17.5 20.5858L21.2929 16.7929C21.6834 16.4024 22.3166 16.4024 22.7071 16.7929Z" fill="#801ED7"/>
<path d="M8.7587 1H15.2413C16.0463 0.999988 16.7106 0.999978 17.2518 1.04419C17.8139 1.09012 18.3306 1.18868 18.816 1.43598C19.5686 1.81947 20.1805 2.43139 20.564 3.18404C20.8113 3.66937 20.9099 4.18608 20.9558 4.74818C21 5.28937 21 5.95372 21 6.75868V14.1047C21 14.302 21 14.4006 20.9758 14.4755C20.9504 14.5541 20.9278 14.5934 20.8729 14.655C20.8204 14.7137 20.7093 14.7787 20.4871 14.9086C20.2698 15.0356 20.065 15.1923 19.8787 15.3787L17.4966 17.7608C16.3186 16.7085 14.5095 16.7478 13.3787 17.8787C12.2071 19.0503 12.2071 20.9497 13.3787 22.1213C13.3995 22.1422 13.4099 22.1526 13.4159 22.1589C13.7084 22.4725 13.4963 22.9848 13.0676 22.9997C13.0589 23 13.0442 23 13.0147 23H8.75868C7.95372 23 7.28937 23 6.74818 22.9558C6.18608 22.9099 5.66937 22.8113 5.18404 22.564C4.43139 22.1805 3.81947 21.5686 3.43598 20.816C3.18868 20.3306 3.09012 19.8139 3.04419 19.2518C2.99998 18.7106 2.99999 18.0463 3 17.2413V6.7587C2.99999 5.95374 2.99998 5.28937 3.04419 4.74818C3.09012 4.18608 3.18868 3.66937 3.43598 3.18404C3.81947 2.43139 4.43139 1.81947 5.18404 1.43598C5.66937 1.18868 6.18608 1.09012 6.74818 1.04419C7.28937 0.999978 7.95374 0.999988 8.7587 1Z" fill="#801ED7"/>
</svg>
